public/livestock/medicine.svg

<svg fill="none" height="179" viewBox="0 0 179 179" width="179" xmlns="http://www.w3.org/2000/svg"><path d="m89.5843 178.389c49.1887 0 89.0647-39.876 89.0647-89.065 0-49.1891-39.876-89.064723-89.0647-89.064723-49.1891 0-89.064769 39.875623-89.064769 89.064723 0 49.189 39.875669 89.065 89.064769 89.065z" fill="#fffac2"/><path d="m72.4178 95.2326c-2.779-2.7506-6.5338-4.2892-10.4438-4.2797-3.91.0096-7.6573 1.5665-10.4228 4.3306l-9.5121 9.5175 10.3925 10.402z" fill="#00bcb4"/><path d="m42.039 104.801-9.39 9.39c-2.7641 2.765-4.3211 6.513-4.3306 10.423s1.5291 7.664 4.2797 10.443l6.1836-6.183 3.3387-3.339 3.1045-3.104 3.3387-3.339 3.8832-3.883z" fill="#fc6719"/><path d="m62.9616 125.723 9.5122-9.512c2.7744-2.774 4.333-6.537 4.333-10.461s-1.5586-7.6867-4.333-10.4613l-.056-.0509-19.9862 19.9662z" fill="#016099"/><path d="m52.4308 115.204-3.8833 3.883-3.3284 3.318-3.1046 3.105-3.3387 3.338-6.1938 6.209.0509.056c2.7746 2.775 6.5376 4.333 10.4613 4.333s7.6867-1.558 10.4613-4.333l9.39-9.39z" fill="#3d113c"/><path d="m142.112 109.173-4.738-4.738-4.743 4.738-4.408-4.408 4.738-4.738-4.738-4.7382 2.127-2.1273-5.516-5.517-14.76 14.7595 13.334 13.334c3.926 3.925 9.246 6.137 14.797 6.151 5.552.014 10.883-2.17 14.829-6.075l-8.779-8.779z" fill="#016099"/><path d="m96.475 59.2964c-3.9049 3.9458-6.0888 9.2771-6.0745 14.8285s2.2257 10.8713 6.1509 14.797l13.5076 13.5071 14.759-14.7591z" fill="#fdb98d"/><path d="m128.223 95.3042 4.738 4.7438-4.738 4.738 4.407 4.412 4.743-4.743 4.739 4.743 2.127-2.127-4.743-4.743-4.408-4.4079-4.738-4.7382z" fill="#fffac2"/><path d="m153.095 86.0618-13.335-13.3343-14.932 14.9324 5.517 5.5169 2.28-2.28 4.738 4.7382 4.739-4.7382 4.407 4.4074-4.738 4.7378 4.738 4.739-2.28 2.28 8.779 8.779.082-.076c3.939-3.939 6.152-9.28 6.153-14.85.001-5.5703-2.211-10.9126-6.148-14.8522z" fill="#3d113c"/><path d="m139.761 72.7326-13.507-13.5073c-1.95-1.9508-4.266-3.4983-6.815-4.5541-2.548-1.0558-5.28-1.5992-8.038-1.5992-2.759 0-5.491.5434-8.039 1.5992-2.549 1.0558-4.8645 2.6033-6.815 4.5541l-.0763.0815 28.3583 28.3582z" fill="#fc6719"/><path d="m137.373 95.6398-4.743-4.7433-2.28 2.2851 4.738 4.7383 4.407 4.4071 4.744 4.744 2.28-2.285-4.739-4.739 4.739-4.7431-4.408-4.4074z" fill="#00bcb4"/><path d="m67.5374 39.9568c-4.6166.0242-9.0359 1.8751-12.2918 5.1482-3.2559 3.273-5.0836 7.702-5.0835 12.3187v15.8688h17.3753z" fill="#016099"/><path d="m50.1621 73.2922v15.6805c-.0001 4.6167 1.8276 9.0456 5.0835 12.3183 3.2559 3.273 7.6752 5.124 12.2918 5.149v-33.1478z" fill="#fffac2"/><path d="m85.0956 73.2925v-15.8841c-.0041-4.6299-1.8461-9.0687-5.1213-12.3411-3.2753-3.2724-7.7157-5.1105-12.3456-5.1105h-.0916v33.3357z" fill="#3d113c"/><path d="m67.5371 73.2922v33.1428h.0916c4.6325 0 9.0753-1.841 12.351-5.116 3.2756-3.2761 5.1159-7.7189 5.1159-12.3514v-15.6754z" fill="#00bcb4"/></svg>

<svg width="179" height="179" viewBox="0 0 179 179" fill="none" xmlns="http://www.w3.org/2000/svg">
<path d="M89.5843 178.389C138.773 178.389 178.649 138.513 178.649 89.324C178.649 40.1349 138.773 0.259277 89.5843 0.259277C40.3952 0.259277 0.519531 40.1349 0.519531 89.324C0.519531 138.513 40.3952 178.389 89.5843 178.389Z" fill="#FFFAC2"/>
<path d="M72.4178 95.2326C69.6388 92.482 65.884 90.9434 61.974 90.9529C58.064 90.9625 54.3167 92.5194 51.5512 95.2835L42.0391 104.801L52.4316 115.203L72.4178 95.2326Z" fill="#00BCB4"/>
<path d="M42.039 104.801L32.649 114.191C29.8849 116.956 28.3279 120.704 28.3184 124.614C28.3089 128.524 29.8475 132.278 32.5981 135.057L38.7817 128.874L42.1204 125.535L45.2249 122.431L48.5636 119.092L52.4468 115.209L42.039 104.801Z" fill="#FC6719"/>
<path d="M62.9616 125.723L72.4738 116.211C75.2482 113.437 76.8068 109.674 76.8068 105.75C76.8068 101.826 75.2482 98.0633 72.4738 95.2887L72.4178 95.2378L52.4316 115.204L62.9616 125.723Z" fill="#016099"/>
<path d="M52.4308 115.204L48.5475 119.087L45.2191 122.405L42.1145 125.51L38.7758 128.848L32.582 135.057L32.6329 135.113C35.4075 137.888 39.1705 139.446 43.0942 139.446C47.0179 139.446 50.7809 137.888 53.5555 135.113L62.9455 125.723L52.4308 115.204Z" fill="#3D113C"/>
<path d="M142.112 109.173L137.374 104.435L132.631 109.173L128.223 104.765L132.961 100.027L128.223 95.2888L130.35 93.1615L124.834 87.6445L110.074 102.404L123.408 115.738C127.334 119.663 132.654 121.875 138.205 121.889C143.757 121.903 149.088 119.719 153.034 115.814L144.255 107.035L142.112 109.173Z" fill="#016099"/>
<path d="M96.475 59.2964C92.5701 63.2422 90.3862 68.5735 90.4005 74.1249C90.4148 79.6763 92.6262 84.9962 96.5514 88.9219L110.059 102.429L124.818 87.6699L96.475 59.2964Z" fill="#FDB98D"/>
<path d="M128.223 95.3042L132.961 100.048L128.223 104.786L132.63 109.198L137.373 104.455L142.112 109.198L144.239 107.071L139.496 102.328L135.088 97.9201L130.35 93.1819L128.223 95.3042Z" fill="#FFFAC2"/>
<path d="M153.095 86.0618L139.76 72.7275L124.828 87.6599L130.345 93.1768L132.625 90.8968L137.363 95.635L142.102 90.8968L146.509 95.3042L141.771 100.042L146.509 104.781L144.229 107.061L153.008 115.84L153.09 115.764C157.029 111.825 159.242 106.484 159.243 100.914C159.244 95.3437 157.032 90.0014 153.095 86.0618Z" fill="#3D113C"/>
<path d="M139.761 72.7326L126.254 59.2253C124.304 57.2745 121.988 55.727 119.439 54.6712C116.891 53.6154 114.159 53.072 111.401 53.072C108.642 53.072 105.91 53.6154 103.362 54.6712C100.813 55.727 98.4975 57.2745 96.547 59.2253L96.4707 59.3068L124.829 87.665L139.761 72.7326Z" fill="#FC6719"/>
<path d="M137.373 95.6398L132.63 90.8965L130.35 93.1816L135.088 97.9199L139.495 102.327L144.239 107.071L146.519 104.786L141.78 100.047L146.519 95.3039L142.111 90.8965L137.373 95.6398Z" fill="#00BCB4"/>
<path d="M67.5374 39.9568C62.9208 39.981 58.5015 41.8319 55.2456 45.105C51.9897 48.378 50.162 52.807 50.1621 57.4237V73.2925H67.5374V39.9568Z" fill="#016099"/>
<path d="M50.1621 73.2922V88.9727C50.162 93.5894 51.9897 98.0183 55.2456 101.291C58.5015 104.564 62.9208 106.415 67.5374 106.44V73.2922H50.1621Z" fill="#FFFAC2"/>
<path d="M85.0956 73.2925V57.4084C85.0915 52.7785 83.2495 48.3397 79.9743 45.0673C76.699 41.7949 72.2586 39.9568 67.6287 39.9568H67.5371V73.2925H85.0956Z" fill="#3D113C"/>
<path d="M67.5371 73.2922V106.435H67.6287C72.2612 106.435 76.704 104.594 79.9797 101.319C83.2553 98.0429 85.0956 93.6001 85.0956 88.9676V73.2922H67.5371Z" fill="#00BCB4"/>
</svg>
